src/view/frontend/web/svg/heroicons/solid/globe-alt.svg

<svg viewBox="0 0 20 20" fill="currentColor" xmlns="http://www.w3.org/2000/svg">
<path fill-rule="evenodd" clip-rule="evenodd" d="M4.08296 9H6.02863C6.11783 7.45361 6.41228 6.02907 6.86644 4.88228C5.41752 5.77135 4.37513 7.25848 4.08296 9ZM10 2C5.58172 2 2 5.58172 2 10C2 14.4183 5.58172 18 10 18C14.4183 18 18 14.4183 18 10C18 5.58172 14.4183 2 10 2ZM10 4C9.92395 4 9.76787 4.03173 9.5347 4.26184C9.29723 4.4962 9.03751 4.8849 8.79782 5.44417C8.40914 6.3511 8.12491 7.58559 8.03237 9H11.9676C11.8751 7.58559 11.5909 6.3511 11.2022 5.44417C10.9625 4.8849 10.7028 4.4962 10.4653 4.26184C10.2321 4.03173 10.076 4 10 4ZM13.9714 9C13.8822 7.45361 13.5877 6.02907 13.1336 4.88228C14.5825 5.77135 15.6249 7.25848 15.917 9H13.9714ZM11.9676 11H8.03237C8.12491 12.4144 8.40914 13.6489 8.79782 14.5558C9.03751 15.1151 9.29723 15.5038 9.5347 15.7382C9.76787 15.9683 9.92395 16 10 16C10.076 16 10.2321 15.9683 10.4653 15.7382C10.7028 15.5038 10.9625 15.1151 11.2022 14.5558C11.5909 13.6489 11.8751 12.4144 11.9676 11ZM13.1336 15.1177C13.5877 13.9709 13.8822 12.5464 13.9714 11H15.917C15.6249 12.7415 14.5825 14.2287 13.1336 15.1177ZM6.86644 15.1177C6.41228 13.9709 6.11783 12.5464 6.02863 11H4.08296C4.37513 12.7415 5.41752 14.2287 6.86644 15.1177Z" />
</svg>

<svg xmlns="http://www.w3.org/2000/svg" fill="currentColor" viewBox="0 0 20 20"><path fill-rule="evenodd" d="M4.083 9h1.946c.089-1.546.383-2.97.837-4.118A6.004 6.004 0 0 0 4.083 9ZM10 2a8 8 0 1 0 0 16 8 8 0 0 0 0-16Zm0 2c-.076 0-.232.032-.465.262-.238.234-.497.623-.737 1.182-.389.907-.673 2.142-.766 3.556h3.936c-.093-1.414-.377-2.649-.766-3.556-.24-.56-.5-.948-.737-1.182C10.232 4.032 10.076 4 10 4Zm3.971 5c-.089-1.546-.383-2.97-.837-4.118A6.004 6.004 0 0 1 15.917 9h-1.946Zm-2.003 2H8.032c.093 1.414.377 2.649.766 3.556.24.56.5.948.737 1.182.233.23.389.262.465.262.076 0 .232-.032.465-.262.238-.234.498-.623.737-1.182.389-.907.673-2.142.766-3.556Zm1.166 4.118c.454-1.147.748-2.572.837-4.118h1.946a6.004 6.004 0 0 1-2.783 4.118Zm-6.268 0C6.412 13.97 6.118 12.546 6.03 11H4.083a6.004 6.004 0 0 0 2.783 4.118Z" clip-rule="evenodd"/></svg>
